X: 42076
T: Waltz One
R: waltz
M: 3/4
K: Adorian
A2 Ac Bd|de AB AG|AE Ac BG|FE FA D2|EA AG B/c/d|ez Ac Eg|fd ga ed|1 A3c BG:|2 de ed eg||
a2 eg ag|~f2 d^c de|~f2 d^c df|g2 ed e/f/g|a2 ed eg|~a2 bg fd|de cA BG|1 ABBc de:|2 ABB3c||

